TiltedControls.Shared/Resources/InputPromptImages/Nintendo/Switch Pro-DPadRight.svg

<svg xmlns="http://www.w3.org/2000/svg" version="1.1" xmlns:xlink="http://www.w3.org/1999/xlink" x="0px" y="0px" viewBox="0 0 100 100">
<defs>
<linearGradient id="Gradient_1" gradientUnits="userSpaceOnUse" x1="91.5" y1="50" x2="67" y2="50" spreadMethod="pad">
<stop  offset="0%" stop-color="#404040"/>

<stop  offset="100%" stop-color="#1B1B1B"/>
</linearGradient>

<g id="Layer1_0_FILL">
<path fill="#313131" stroke="none" d="
M 41.3 13.6
Q 41.75 13.15 42.35 13.15
L 57.65 13.15
Q 58.25 13.15 58.7 13.6 59.15 14.05 59.15 14.65
L 59.15 34.85
Q 59.15 37.35 60.9 39.1 61.25 39.45 61.65 39.8 62.3 38 63.15 36.35 62.65 35.7 62.65 34.85
L 62.65 12.8
Q 62 10.15 59.55 9.65
L 40.45 9.65
Q 38.1 10.15 37.35 12.8
L 37.35 34.85
Q 37.35 35.9 36.6 36.65 35.9 37.35 34.85 37.35
L 12.8 37.35
Q 10.15 38 9.65 40.45
L 9.65 59.55
Q 10.15 61.9 12.75 62.65
L 34.85 62.65
Q 35.9 62.65 36.6 63.4 37.35 64.1 37.35 65.15
L 37.35 87.25
Q 38.1 89.85 40.45 90.35
L 59.55 90.35
Q 62 89.85 62.65 87.2
L 62.65 65.15
Q 62.65 64.3 63.15 63.65 62.3 62 61.65 60.25 61.25 60.55 60.9 60.9 59.15 62.65 59.15 65.15
L 59.15 85.35
Q 59.15 85.95 58.7 86.4
L 58.7 86.45
Q 58.25 86.85 57.65 86.85
L 42.35 86.85
Q 41.75 86.85 41.3 86.45
L 41.25 86.4
Q 40.85 85.95 40.85 85.35
L 40.85 65.15
Q 40.85 62.65 39.1 60.9 37.35 59.15 34.85 59.15
L 14.65 59.15
Q 14.05 59.15 13.6 58.75
L 13.55 58.7
Q 13.15 58.25 13.15 57.65
L 13.15 42.35
Q 13.15 41.75 13.55 41.3
L 13.6 41.3
Q 14.05 40.85 14.65 40.85
L 34.85 40.85
Q 37.35 40.85 39.1 39.1 40.85 37.35 40.85 34.85
L 40.85 14.65
Q 40.85 14.05 41.25 13.6
L 41.3 13.6 Z"/>

<path fill="#4F4F4F" stroke="none" d="
M 42.35 13.15
Q 41.75 13.15 41.3 13.6
L 41.25 13.6
Q 40.85 14.05 40.85 14.65
L 40.85 34.85
Q 40.85 37.35 39.1 39.1 37.35 40.85 34.85 40.85
L 14.65 40.85
Q 14.05 40.85 13.6 41.3
L 13.55 41.3
Q 13.15 41.75 13.15 42.35
L 13.15 57.65
Q 13.15 58.25 13.55 58.7
L 13.6 58.75
Q 14.05 59.15 14.65 59.15
L 34.85 59.15
Q 37.35 59.15 39.1 60.9 40.85 62.65 40.85 65.15
L 40.85 85.35
Q 40.85 85.95 41.25 86.4
L 41.3 86.45
Q 41.75 86.85 42.35 86.85
L 57.65 86.85
Q 58.25 86.85 58.7 86.45
L 58.7 86.4
Q 59.15 85.95 59.15 85.35
L 59.15 65.15
Q 59.15 62.65 60.9 60.9 61.25 60.55 61.65 60.25 60 55.45 60 50 60 44.55 61.65 39.8 61.25 39.45 60.9 39.1 59.15 37.35 59.15 34.85
L 59.15 14.65
Q 59.15 14.05 58.7 13.6 58.25 13.15 57.65 13.15
L 42.35 13.15
M 55.05 25.95
L 44.9 25.95 50 17 55.05 25.95
M 25.95 55.05
L 17 50 25.95 44.9 25.95 55.05
M 44.9 74.05
L 55.05 74.05 50 83 44.9 74.05 Z"/>

<path fill="#9A9A9A" stroke="none" d="
M 55.05 74.05
L 44.9 74.05 50 83 55.05 74.05
M 17 50
L 25.95 55.05 25.95 44.9 17 50
M 44.9 25.95
L 55.05 25.95 50 17 44.9 25.95 Z"/>

<path fill="#1B1B1B" stroke="none" d="
M 67.65 12.8
Q 67.7 12.45 67.6 12.1
L 67.6 12
Q 67.6 11.85 67.55 11.8 66.15 5.5 60.25 4.7
L 60.15 4.7
Q 60.1 4.65 60 4.65 59.8 4.65 59.55 4.65
L 40.4 4.65
Q 40.1 4.6 39.8 4.7 39.75 4.7 39.65 4.7 34.05 5.6 32.5 11.6 32.35 12 32.35 12.5
L 32.35 32.35 12.75 32.35
Q 12.45 32.3 12.05 32.4 12 32.4 11.95 32.4 11.85 32.4 11.75 32.45 5.5 33.85 4.7 39.7 4.7 39.75 4.65 39.85 4.65 40.05 4.65 40.2 4.65 40.25 4.65 40.3
L 4.65 59.6
Q 4.6 59.9 4.65 60.2
L 4.7 60.35
Q 5.6 65.95 11.6 67.5 12 67.65 12.5 67.65
L 32.35 67.65 32.35 87.5
Q 32.35 88 32.5 88.4 34.05 94.4 39.65 95.3
L 39.8 95.35
Q 40.1 95.4 40.4 95.35
L 59.7 95.35
Q 59.75 95.35 59.8 95.35 59.95 95.35 60.15 95.35
L 60.25 95.3
Q 66.15 94.5 67.55 88.2 67.55 88.15 67.55 88.1
L 67.6 88.05 67.6 87.9
Q 67.7 87.55 67.65 87.25
L 67.65 70.15
Q 64.9 67.1 63.15 63.65 62.65 64.3 62.65 65.15
L 62.65 87.2
Q 62 89.85 59.55 90.35
L 40.45 90.35
Q 38.1 89.85 37.35 87.25
L 37.35 65.15
Q 37.35 64.1 36.6 63.4 35.9 62.65 34.85 62.65
L 12.75 62.65
Q 10.15 61.9 9.65 59.55
L 9.65 40.45
Q 10.15 38 12.8 37.35
L 34.85 37.35
Q 35.9 37.35 36.6 36.65 37.35 35.9 37.35 34.85
L 37.35 12.8
Q 38.1 10.15 40.45 9.65
L 59.55 9.65
Q 62 10.15 62.65 12.8
L 62.65 34.85
Q 62.65 35.7 63.15 36.35 64.9 32.9 67.65 29.85
L 67.65 12.8
M 74.05 44.9
L 74.05 55.05 83 50 74.05 44.9 Z"/>

<path fill="#F5F5F5" stroke="none" d="
M 86.85 42.35
Q 86.85 41.75 86.4 41.3 85.95 40.85 85.35 40.85
L 65.15 40.85
Q 63.2 40.85 61.65 39.8 60 44.55 60 50 60 55.45 61.65 60.25 63.2 59.15 65.15 59.15
L 85.35 59.15
Q 85.95 59.15 86.4 58.75
L 86.4 58.7
Q 86.85 58.25 86.85 57.65
L 86.85 42.35
M 74.05 55.05
L 74.05 44.9 83 50 74.05 55.05 Z"/>

<path fill="#D7D7D7" stroke="none" d="
M 90.35 40.45
Q 89.85 38 87.2 37.35
L 65.15 37.35
Q 64.1 37.35 63.35 36.65 63.25 36.5 63.15 36.35 62.3 38 61.65 39.8 63.2 40.85 65.15 40.85
L 85.35 40.85
Q 85.95 40.85 86.4 41.3 86.85 41.75 86.85 42.35
L 86.85 57.65
Q 86.85 58.25 86.4 58.7
L 86.4 58.75
Q 85.95 59.15 85.35 59.15
L 65.15 59.15
Q 63.2 59.15 61.65 60.25 62.3 62 63.15 63.65 63.25 63.5 63.35 63.4 64.1 62.65 65.15 62.65
L 87.2 62.65
Q 89.85 61.9 90.35 59.55
L 90.35 40.45 Z"/>

<path fill="url(#Gradient_1)" stroke="none" d="
M 88.15 32.45
L 88.1 32.45
Q 88.05 32.4 88 32.4
L 87.9 32.4
Q 87.55 32.3 87.25 32.35
L 67.65 32.35 67.65 29.85
Q 64.9 32.9 63.15 36.35 63.25 36.5 63.35 36.65 64.1 37.35 65.15 37.35
L 87.2 37.35
Q 89.85 38 90.35 40.45
L 90.35 59.55
Q 89.85 61.9 87.2 62.65
L 65.15 62.65
Q 64.1 62.65 63.35 63.4 63.25 63.5 63.15 63.65 64.9 67.1 67.65 70.15
L 67.65 67.65 87.5 67.65
Q 88 67.65 88.4 67.5 94.4 65.95 95.3 60.35 95.3 60.25 95.3 60.2 95.4 59.9 95.35 59.6
L 95.35 40.3
Q 95.35 40.25 95.35 40.2 95.35 40.05 95.3 39.85
L 95.3 39.75
Q 94.5 33.85 88.15 32.45 Z"/>
</g>

</defs>

<g transform="matrix( 1, 0, 0, 1, 0,0) ">
<use xlink:href="#Layer1_0_FILL"/>
</g>

<g transform="matrix( 1, 0, 0, 1, -3.4,-28) ">
<clipPath id="Mask_Mask_1">
<rect x="-2.9" y="-2" width="112.6" height="20.8" fill="#FFFFFF" stroke="none"/>
</clipPath>

<text clip-path="url(#Mask_Mask_1)" writing-mode="lr"><tspan x="-0.85" y="13.6" baseline-shift="0%" kerning="auto" font-family="Arial_Regular" font-size="15" fill="#999999" xml:space="preserve">Nintendo Switch</tspan></text>
</g>
</svg>

<?xml version="1.0" encoding="utf-8"?>
<!-- Generator: Adobe Illustrator 25.0.0, SVG Export Plug-In . SVG Version: 6.00 Build 0)  -->
<svg version="1.1" id="Layer_1" xmlns="http://www.w3.org/2000/svg" xmlns:xlink="http://www.w3.org/1999/xlink" x="0px" y="0px"
	 viewBox="0 0 100 100" style="enable-background:new 0 0 100 100;" xml:space="preserve">
<g transform="matrix( 1, 0, 0, 1, 0,0) ">
	<g>
		<g id="Layer1_0_FILL">
			<path style="fill:#313131;" d="M41.3,13.6c0.3-0.3,0.7-0.5,1-0.5h15.3c0.4,0,0.7,0.2,1,0.5s0.5,0.6,0.5,1v20.2
				c0,1.7,0.6,3.1,1.8,4.2c0.2,0.2,0.5,0.5,0.8,0.7c0.4-1.2,0.9-2.3,1.5-3.5c-0.3-0.4-0.5-0.9-0.5-1.5v-22c-0.4-1.8-1.5-2.8-3.1-3.2
				H40.5c-1.6,0.3-2.6,1.4-3.1,3.2v22c0,0.7-0.2,1.3-0.8,1.8c-0.5,0.5-1,0.7-1.8,0.7h-22c-1.8,0.4-2.8,1.5-3.2,3.1v19.1
				C9.9,61,11,62,12.7,62.5h22.1c0.7,0,1.3,0.3,1.8,0.8s0.8,1.1,0.8,1.8v22.1c0.5,1.7,1.5,2.8,3.1,3.1h19.1c1.6-0.3,2.7-1.4,3.1-3.2
				v-22c0-0.6,0.2-1.1,0.5-1.5c-0.6-1.1-1.1-2.2-1.5-3.4c-0.3,0.2-0.5,0.4-0.8,0.7c-1.2,1.2-1.7,2.6-1.8,4.2v20.2
				c0,0.4-0.2,0.8-0.5,1.1l0,0c-0.3,0.3-0.7,0.4-1,0.4H42.3c-0.4,0-0.7-0.1-1-0.4l0,0c-0.3-0.3-0.4-0.7-0.4-1.1V65.2
				c0-1.7-0.6-3.1-1.8-4.2c-1.2-1.2-2.6-1.7-4.2-1.8H14.6c-0.4,0-0.7-0.1-1-0.4h-0.1c-0.3-0.3-0.4-0.7-0.4-1V42.3
				c0-0.4,0.1-0.7,0.4-1h0.1c0.3-0.3,0.6-0.5,1-0.5h20.2c1.7,0,3.1-0.6,4.2-1.8s1.8-2.6,1.8-4.2V14.6C40.8,14.2,41,13.9,41.3,13.6
				L41.3,13.6z"/>
			<path style="fill:#4F4F4F;" d="M42.3,13.1c-0.4,0-0.7,0.2-1,0.5l0,0c-0.3,0.3-0.4,0.6-0.4,1v20.2c0,1.7-0.6,3.1-1.8,4.2
				s-2.6,1.8-4.2,1.8H14.6c-0.4,0-0.7,0.2-1,0.5h-0.1c-0.3,0.3-0.4,0.7-0.4,1v15.3c0,0.4,0.1,0.7,0.4,1h0.1c0.3,0.3,0.6,0.4,1,0.4
				h20.2c1.7,0,3.1,0.6,4.2,1.8c1.2,1.2,1.8,2.6,1.8,4.2v20.2c0,0.4,0.1,0.8,0.4,1.1l0,0c0.3,0.3,0.7,0.4,1,0.4h15.3
				c0.4,0,0.7-0.1,1-0.4l0,0c0.3-0.3,0.5-0.7,0.5-1.1v-20c0-1.7,0.6-3.1,1.8-4.2c0.2-0.2,0.5-0.5,0.8-0.7C60.5,57,60,53.6,60,50
				s0.5-7,1.7-10.2c-0.3-0.2-0.5-0.5-0.8-0.7c-1.2-1.2-1.7-2.6-1.8-4.2V14.6c0-0.4-0.2-0.7-0.5-1s-0.7-0.5-1-0.5H42.3 M55,26H44.9
				l5.1-9L55,26 M26,55l-9-5l9-5.1V55 M44.9,74.1H55L50,83L44.9,74.1z"/>
			<path style="fill:#9A9A9A;" d="M55,74.1H44.9L50,83L55,74.1 M17,50l9,5V44.9L17,50 M44.9,26H55l-5-9L44.9,26z"/>
			<path style="fill:#1B1B1B;" d="M67.7,12.8c0-0.2,0-0.5-0.1-0.7V12c0-0.1,0-0.2,0-0.2c-0.9-4.2-3.4-6.6-7.3-7.1h-0.1
				c0,0-0.1,0-0.2,0c-0.1,0-0.3,0-0.5,0H40.4c-0.2,0-0.4,0-0.6,0h-0.1c-3.7,0.6-6.1,2.9-7.2,6.9c-0.1,0.3-0.2,0.6-0.2,0.9v19.8H12.8
				c-0.2,0-0.4,0-0.7,0.1H12c-0.1,0-0.1,0-0.2,0c-4.2,0.9-6.5,3.3-7.1,7.2v0.1c0,0.1,0,0.3,0,0.4v0.1v19.3c0,0.2,0,0.4,0,0.6v0.1
				c0.6,3.7,2.9,6.1,6.9,7.2c0.3,0.1,0.6,0.2,0.9,0.2h19.8v19.8c0,0.3,0,0.6,0.2,0.9c1,4,3.4,6.3,7.2,6.9h0.1c0.2,0,0.4,0,0.6,0
				h19.3h0.1c0.1,0,0.2,0,0.4,0h0.1c3.9-0.5,6.4-2.9,7.3-7.1V88l0,0v-0.2c0.1-0.2,0.1-0.4,0.1-0.7V70.2c-1.8-2-3.3-4.2-4.5-6.5
				c-0.3,0.4-0.5,0.9-0.5,1.5v22c-0.4,1.8-1.5,2.8-3.1,3.2H40.5c-1.6-0.3-2.6-1.4-3.1-3.1V65.2c0-0.7-0.2-1.3-0.8-1.8
				c-0.5-0.5-1-0.7-1.8-0.8h-22c-1.7-0.5-2.8-1.5-3.1-3.1v-19c0.3-1.6,1.4-2.7,3.2-3.1h22c0.7,0,1.3-0.2,1.8-0.7s0.8-1.1,0.8-1.8
				v-22c0.5-1.8,1.5-2.8,3.1-3.2h19.1c1.6,0.3,2.7,1.4,3.1,3.2v22c0,0.6,0.2,1.1,0.5,1.5c1.2-2.3,2.7-4.5,4.5-6.5L67.7,12.8
				 M74.1,44.9V55l8.9-5L74.1,44.9z"/>
			<path style="fill:#F5F5F5;" d="M86.8,42.3c0-0.4-0.1-0.7-0.4-1s-0.7-0.5-1.1-0.5H65.2c-1.3,0-2.5-0.3-3.5-1
				C60.5,43,60,46.4,60,50s0.5,7,1.7,10.2c1-0.7,2.2-1.1,3.5-1.1h20.2c0.4,0,0.8-0.1,1.1-0.4l0,0c0.3-0.3,0.4-0.7,0.4-1L86.8,42.3
				 M74.1,55V44.9L83,50L74.1,55z"/>
			<path style="fill:#D7D7D7;" d="M90.3,40.5c-0.3-1.6-1.4-2.7-3.2-3.1h-22c-0.7,0-1.3-0.2-1.8-0.7c-0.1-0.1-0.1-0.2-0.2-0.3
				c-0.6,1.1-1.1,2.3-1.5,3.5c1,0.7,2.2,1,3.5,1h20.2c0.4,0,0.8,0.2,1.1,0.5c0.3,0.3,0.4,0.7,0.4,1v15.3c0,0.4-0.1,0.7-0.4,1l0,0
				c-0.3,0.3-0.7,0.4-1.1,0.4H65.2c-1.3,0-2.5,0.4-3.5,1.1c0.4,1.2,0.9,2.3,1.5,3.4c0.1-0.1,0.1-0.2,0.2-0.2
				c0.5-0.5,1.1-0.7,1.8-0.8h22c1.8-0.5,2.8-1.5,3.2-3.1L90.3,40.5L90.3,40.5z"/>
			
				<linearGradient id="SVGID_1_" gradientUnits="userSpaceOnUse" x1="91.5" y1="1028.05" x2="67" y2="1028.05" gradientTransform="matrix(1 0 0 1 0 -978)">
				<stop  offset="0" style="stop-color:#404040"/>
				<stop  offset="1" style="stop-color:#1B1B1B"/>
			</linearGradient>
			<path style="fill:url(#SVGID_1_);" d="M88.2,32.5L88.2,32.5c-0.1,0-0.1,0-0.2,0h-0.1c-0.2-0.1-0.4-0.1-0.7-0.1H67.7v-2.5
				c-1.8,2-3.3,4.2-4.5,6.5c0.1,0.1,0.1,0.2,0.2,0.3c0.5,0.5,1.1,0.7,1.8,0.7h22c1.8,0.4,2.8,1.5,3.2,3.1v19.1
				c-0.3,1.6-1.4,2.6-3.2,3.1h-22c-0.7,0-1.3,0.3-1.8,0.8c-0.1,0.1-0.1,0.1-0.2,0.2c1.2,2.3,2.7,4.5,4.5,6.5v-2.5h19.8
				c0.3,0,0.6-0.1,0.9-0.2c4-1,6.3-3.4,6.9-7.2c0-0.1,0-0.1,0-0.1c0.1-0.2,0.1-0.4,0-0.6V40.3v-0.1c0-0.1,0-0.2,0-0.4v-0.1
				C94.8,35.8,92.4,33.4,88.2,32.5z"/>
		</g>
	</g>
</g>
</svg>
